assets/images/django.svg

<svg width="24" height="28" viewBox="0 0 24 28" fill="none" xmlns="http://www.w3.org/2000/svg">
<path d="M10.807 0H15.8229V21.1916C13.2527 21.6379 11.3609 21.8164 9.30917 21.8164C3.19026 21.8164 0 19.292 0 14.4428C0 9.77638 3.38385 6.74538 8.62492 6.74538C9.43854 6.74538 10.0576 6.80487 10.8061 6.9825L10.807 0ZM10.807 10.6689C10.2627 10.5 9.68867 10.4186 9.11463 10.4274C6.57411 10.4274 5.11171 11.8536 5.11171 14.3561C5.11171 16.7939 6.50894 18.13 9.08492 18.13C9.63883 18.13 10.0931 18.1029 10.807 18.0119V10.6654V10.6689ZM23.8 7.06825V17.682C23.8 21.3369 23.5106 23.0965 22.6318 24.6094C21.8182 26.068 20.7401 26.9885 18.5292 28L13.8727 25.9761C16.0836 25.0233 17.1617 24.1946 17.8459 22.9136C18.5599 21.6055 18.7889 20.0882 18.7889 16.1052V7.06825H23.8ZM18.7889 0.02275H23.8V4.7215H18.7889V0.02275Z" fill="#626262"/>
</svg>

<svg width="24" height="28" viewBox="0 0 24 28" fill="none" xmlns="http://www.w3.org/2000/svg"><path d="M10.807 0h5.016v21.192c-2.57.446-4.462.624-6.514.624C3.19 21.816 0 19.292 0 14.443c0-4.667 3.384-7.698 8.625-7.698.814 0 1.433.06 2.181.237L10.807 0Zm0 10.669a5.442 5.442 0 0 0-1.692-.242c-2.54 0-4.003 1.427-4.003 3.93 0 2.437 1.397 3.773 3.973 3.773.554 0 1.008-.027 1.722-.118v-7.347.004Zm12.993-3.6v10.613c0 3.655-.29 5.415-1.168 6.927-.814 1.459-1.892 2.38-4.103 3.391l-4.656-2.024c2.21-.953 3.289-1.781 3.973-3.062.714-1.309.943-2.826.943-6.809V7.068H23.8ZM18.789.022H23.8v4.699h-5.011v-4.7Z" fill="#626262"/></svg>
